X:504
T:Polska # 504
T: efter Melker Andersson
Q: 110
M:3/4
L:1/16
K: D
A2FA G2EG F2D2| D2F2 A2d2 (ed)cd| A3F (GF)GA B3G| E2C2 (C2D2) [Dd]4 :|
|: E3C A,CEC A,CEG| G3F D2F2 AFAF| E3C A,CEC A,CEG| G3F D2F2 A3F|
D3F A2d2 edcd| A2F2 (GF)GA B2G2| E2C2 (C2D2) D4:|

